X:1
T:8 Lieder und Gesänge, Op.59
T:Dein blaues Auge
T:8 Lieder und Gesänge, Op.59
T:8. Dein blaues Auge
T:Johannes Brahms
T:Klaus Groth
T:Creative Commons copyright waiver (CC0 1.0 Universal)
T:Creative Commons copyright waiver (CC0 1.0 Universal)
C:Johannes Brahms
Z:Klaus Groth
Z:Creative Commons copyright waiver (CC0 1.0 Universal)
L:1/8
M:4/4
K:Eb
V:1 treble nm="Voice"
V:1
 z8 | z8 | z8 | z4 z2 B2 | c3 c B2 B2 | e3 e d2 c2 | B2 A2 G2 F2 | E4 z2 G2 | G2 G2 z2 GG | %9
w: |||Dein|blau- es Au- ge|hält so still, ich|bli- cke bis zum|Grund. Du|fragst mich, was ich|
 c3 F F2!f! B2 | B3 B F3 F | B,4 z4 | z4 z2 B2 | _c3 c B2 B2 | e3 e e3 _d | (_d_c) z B (BA) z =A | %16
w: se- hen will? Ich|se- he mich ge-|sund.|Es|brann- te mich ein|glü- hend Paar, noch|schmerzt, * noch schmerzt * das|
 (B4 _c3) A | _G4 z2 B2 | B2 B2 z2 BB | e3 A A4 | z4 z2!f! e2 | e3 e B3 B | G4 z2 g2 | e3 e B3 B | %24
w: Nach- * ge-|fühl: das|dei- ne ist wie|See so klar|und|wie ein See so|kühl, und|wie ein See so|
 E4 z4 | z8 | z8 | z8 | !fermata!z8 |] %29
w: kühl.|||||

